assets/layout/images/icons/icon-blockquote-wave.svg

<svg fill="none" height="119" viewBox="0 0 21 119" width="21" xmlns="http://www.w3.org/2000/svg"><path d="m5.50002 6.00003c-.223 0-.437.034-.65.065.069-.232.14-.468.254-.68.114-.308.292-.575.469-.844.148-.291.409-.488.601-.737.201-.242.475-.403.692-.604.213-.21.492-.315.714-.463.232-.133.434-.28.65-.35l.539-.222.474-.197-.485-1.9380007-.597.1439997c-.191.048-.424.104-.689.171-.271.05-.56.187-.882.312-.318.142-.686.238-1.028.466001-.344.218-.741.4-1.091.692-.339.301-.748.562-1.05.945-.33.358-.656.734-.909 1.162-.293.408-.492.856-.702 1.299-.19.443-.343.896-.468 1.336-.237.882-.342997 1.72-.383997 2.437-.034.718-.014 1.31497.028 1.74697.014997.204.042997.402.062997.539l.025.168.026-.006c.17786.8309.58731 1.5944 1.18097 2.2022.59366.6079 1.34727 1.0352 2.17367 1.2327.8264.1974 1.69181.1568 2.49612-.117.80431-.2739 1.51465-.7699 2.04885-1.4306s.87044-1.4592.96981-2.303c.09936-.8438-.04218-1.69851-.40828-2.46525-.36611-.76673-.9418-1.41416-1.66048-1.86737-.71869-.45322-1.551-.69371-2.40066-.69365zm10.99998 0c-.223 0-.437.034-.65.065.069-.232.14-.468.254-.68.114-.308.292-.575.469-.844.148-.291.409-.488.601-.737.201-.242.475-.403.692-.604.213-.21.492-.315.714-.463.232-.133.434-.28.65-.35l.539-.222.474-.197-.485-1.9380007-.597.1439997c-.191.048-.424.104-.689.171-.271.05-.56.187-.882.312-.317.143-.686.238-1.028.467001-.344.218-.741.4-1.091.692-.339.301-.748.562-1.05.944-.33.358-.656.734-.909 1.162-.293.408-.492.856-.702 1.299-.19.443-.343.896-.468 1.336-.237.882-.343 1.72-.384 2.437-.034.718-.014 1.31497.028 1.74697.015.204.043.402.063.539l.025.168.026-.006c.1779.8309.5873 1.5944 1.181 2.2022.5936.6079 1.3473 1.0352 2.1737 1.2327.8264.1974 1.6918.1568 2.4961-.117.8043-.2739 1.5146-.7699 2.0488-1.4306s.8705-1.4592.9698-2.303c.0994-.8438-.0421-1.69851-.4082-2.46525-.3661-.76673-.9418-1.41416-1.6605-1.86737-.7187-.45322-1.551-.69371-2.4007-.69365z" fill="#51b3f7"/><path d="m10 27c2.6667 3.0333 2.6667 6.0667 0 9.1-2.66666 3.0333-2.66666 6.0667 0 9.1 2.6667 3.0333 2.6667 6.0667 0 9.1-2.66666 3.0333-2.66666 6.0667 0 9.1 2.6667 3.0333 2.6667 6.0667 0 9.1-2.66666 3.0333-2.66666 6.0667 0 9.1 2.6667 3.0333 2.6667 6.0667 0 9.1-2.66666 3.0333-2.66666 6.0667 0 9.1 2.6667 3.033 2.6667 6.067 0 9.1-2.66667 3.033-2.66667 6.067 0 9.1" stroke="#51b3f7"/></svg>

<svg width="21" height="119" viewBox="0 0 21 119" fill="none" xmlns="http://www.w3.org/2000/svg">
<path d="M5.50002 6.00003C5.27702 6.00003 5.06302 6.03403 4.85002 6.06503C4.91902 5.83303 4.99002 5.59703 5.10402 5.38503C5.21802 5.07703 5.39602 4.81003 5.57302 4.54103C5.72102 4.25003 5.98202 4.05303 6.17402 3.80403C6.37502 3.56203 6.64902 3.40103 6.86602 3.20003C7.07902 2.99003 7.35802 2.88503 7.58002 2.73703C7.81202 2.60403 8.01402 2.45703 8.23002 2.38703L8.76902 2.16503L9.24302 1.96803L8.75802 0.0300293L8.16102 0.174029C7.97002 0.222029 7.73702 0.278029 7.47202 0.345029C7.20102 0.395029 6.91202 0.532029 6.59002 0.657029C6.27202 0.799029 5.90402 0.895029 5.56202 1.12303C5.21802 1.34103 4.82102 1.52303 4.47102 1.81503C4.13202 2.11603 3.72302 2.37703 3.42102 2.76003C3.09102 3.11803 2.76502 3.49403 2.51202 3.92203C2.21902 4.33003 2.02002 4.77803 1.81002 5.22103C1.62002 5.66403 1.46702 6.11703 1.34202 6.55703C1.10502 7.43903 0.999023 8.27703 0.958023 8.99403C0.924023 9.71203 0.944023 10.309 0.986023 10.741C1.00102 10.945 1.02902 11.143 1.04902 11.28L1.07402 11.448L1.10002 11.442C1.27788 12.2729 1.68733 13.0364 2.28099 13.6442C2.87465 14.2521 3.62826 14.6794 4.45466 14.8769C5.28106 15.0743 6.14647 15.0337 6.95078 14.7599C7.75509 14.486 8.46543 13.99 8.99963 13.3293C9.53383 12.6686 9.87007 11.8701 9.96944 11.0263C10.0688 10.1825 9.92726 9.32779 9.56116 8.56105C9.19505 7.79432 8.61936 7.14689 7.90068 6.69368C7.18199 6.24046 6.34968 5.99997 5.50002 6.00003ZM16.5 6.00003C16.277 6.00003 16.063 6.03403 15.85 6.06503C15.919 5.83303 15.99 5.59703 16.104 5.38503C16.218 5.07703 16.396 4.81003 16.573 4.54103C16.721 4.25003 16.982 4.05303 17.174 3.80403C17.375 3.56203 17.649 3.40103 17.866 3.20003C18.079 2.99003 18.358 2.88503 18.58 2.73703C18.812 2.60403 19.014 2.45703 19.23 2.38703L19.769 2.16503L20.243 1.96803L19.758 0.0300293L19.161 0.174029C18.97 0.222029 18.737 0.278029 18.472 0.345029C18.201 0.395029 17.912 0.532029 17.59 0.657029C17.273 0.800029 16.904 0.895029 16.562 1.12403C16.218 1.34203 15.821 1.52403 15.471 1.81603C15.132 2.11703 14.723 2.37803 14.421 2.76003C14.091 3.11803 13.765 3.49403 13.512 3.92203C13.219 4.33003 13.02 4.77803 12.81 5.22103C12.62 5.66403 12.467 6.11703 12.342 6.55703C12.105 7.43903 11.999 8.27703 11.958 8.99403C11.924 9.71203 11.944 10.309 11.986 10.741C12.001 10.945 12.029 11.143 12.049 11.28L12.074 11.448L12.1 11.442C12.2779 12.2729 12.6873 13.0364 13.281 13.6442C13.8746 14.2521 14.6283 14.6794 15.4547 14.8769C16.2811 15.0743 17.1465 15.0337 17.9508 14.7599C18.7551 14.486 19.4654 13.99 19.9996 13.3293C20.5338 12.6686 20.8701 11.8701 20.9694 11.0263C21.0688 10.1825 20.9273 9.32779 20.5612 8.56105C20.1951 7.79432 19.6194 7.14689 18.9007 6.69368C18.182 6.24046 17.3497 5.99997 16.5 6.00003Z" fill="#51B3F7"/>
<path d="M10 27C12.6667 30.0333 12.6667 33.0667 10 36.1C7.33334 39.1333 7.33334 42.1667 10 45.2C12.6667 48.2333 12.6667 51.2667 10 54.3C7.33334 57.3333 7.33334 60.3667 10 63.4C12.6667 66.4333 12.6667 69.4667 10 72.5C7.33334 75.5333 7.33334 78.5667 10 81.6C12.6667 84.6333 12.6667 87.6667 10 90.7C7.33334 93.7333 7.33334 96.7667 10 99.8C12.6667 102.833 12.6667 105.867 10 108.9C7.33333 111.933 7.33333 114.967 10 118" stroke="#51B3F7"/>
</svg>
